svg/l/GU.svg

<svg width="32" height="24" viewBox="0 0 32 24" fill="none" xmlns="http://www.w3.org/2000/svg">
<g clip-path="url(#clip0_270_67565)">
<rect width="32" height="24" fill="white"/>
<path fill-rule="evenodd" clip-rule="evenodd" d="M0 0H32V24H0V0Z" fill="#C51918"/>
<path fill-rule="evenodd" clip-rule="evenodd" d="M4 4H28V20H4V4Z" fill="#4564F9"/>
<path d="M5 5H27V19H5V5Z" stroke="#CBDAFF" stroke-opacity="0.1" stroke-width="2"/>
<mask id="mask0_270_67565" style="mask-type:luminance" maskUnits="userSpaceOnUse" x="4" y="4" width="24" height="16">
<path fill-rule="evenodd" clip-rule="evenodd" d="M4 4H28V20H4V4Z" fill="white"/>
<path d="M5 5H27V19H5V5Z" stroke="white" stroke-width="2"/>
</mask>
<g mask="url(#mask0_270_67565)">
<path d="M16.5 5.00005L17.1067 3.68306L16.4859 3.39708L15.8702 3.69397L16.5 5.00005ZM16.5 5.00005C17.1067 3.68306 17.1071 3.68326 17.1075 3.68347L17.1086 3.68393L17.1109 3.68504L17.1172 3.68797L17.1358 3.69669C17.1508 3.70377 17.1709 3.71338 17.1958 3.7255C17.2457 3.74974 17.3149 3.78407 17.4007 3.82829C17.5721 3.91664 17.8109 4.0451 18.0948 4.21219C18.6595 4.5445 19.4188 5.03914 20.1854 5.6863C21.6653 6.93572 23.45 8.99315 23.45 11.753C23.45 14.4844 21.6952 16.659 20.2398 18.0185C19.4831 18.7253 18.7325 19.2818 18.1734 19.661C17.8924 19.8516 17.6563 19.9998 17.4871 20.1022C17.4025 20.1534 17.3344 20.1933 17.2855 20.2215C17.2611 20.2355 17.2415 20.2467 17.227 20.2548L17.2091 20.2648L17.2032 20.2681L17.201 20.2694L17.2 20.2699C17.1996 20.2701 17.1992 20.2703 16.5 19M16.5 5.00005C15.8702 3.69397 15.8698 3.69417 15.8693 3.69437L15.8684 3.69484L15.8661 3.69596L15.8599 3.69894L15.8418 3.70788C15.827 3.71516 15.8071 3.72508 15.7825 3.73759C15.7331 3.76262 15.6644 3.7981 15.5792 3.84375C15.4089 3.93494 15.1713 4.06734 14.8887 4.23873C14.3266 4.57961 13.5707 5.08427 12.8077 5.73667C11.3432 6.98889 9.55 9.04676 9.55 11.753C9.55 14.43 11.3123 16.606 12.7542 17.9683C13.5078 18.6803 14.2553 19.2466 14.8121 19.6343C15.0918 19.8291 15.3268 19.9812 15.4949 20.0863C15.5791 20.1389 15.6467 20.1799 15.6951 20.2088C15.7193 20.2232 15.7387 20.2346 15.7529 20.243L15.7704 20.2532L15.7762 20.2565L15.7784 20.2577L15.7793 20.2582C15.7797 20.2585 15.78 20.2587 16.5 19M16.5 19L17.1992 20.2703L16.4864 20.6627L15.78 20.2587L16.5 19Z" stroke="#C1C9F1" stroke-opacity="0.1182" stroke-width="2.9"/>
<path d="M16.4 6.03679L17.0865 4.75961L16.384 4.38199L15.689 4.77311L16.4 6.03679ZM16.4 6.03679C17.0865 4.75961 17.087 4.75985 17.0875 4.7601L17.0885 4.76064L17.0908 4.76188L17.0964 4.76497L17.1122 4.77361C17.1246 4.78045 17.1408 4.78947 17.1605 4.80065C17.1999 4.82301 17.2535 4.85405 17.3193 4.89361C17.4506 4.97263 17.6317 5.0863 17.8459 5.2334C18.2717 5.52582 18.8422 5.95961 19.4176 6.52647C20.5414 7.63352 21.85 9.41701 21.85 11.7676C21.85 14.0945 20.5638 15.9719 19.4685 17.1658C18.904 17.7809 18.3437 18.2658 17.9249 18.5973C17.7145 18.7639 17.5368 18.894 17.4084 18.9847C17.3441 19.0301 17.2919 19.0658 17.2538 19.0914C17.2348 19.1042 17.2193 19.1145 17.2075 19.1222L17.1927 19.1319L17.1874 19.1353L17.1854 19.1366L17.1845 19.1372C17.1841 19.1375 17.1837 19.1377 16.4 17.9177M16.4 6.03679C15.689 4.77311 15.6885 4.77335 15.6881 4.77359L15.6871 4.77413L15.685 4.77537L15.6795 4.77849L15.6641 4.78728C15.652 4.79426 15.6361 4.80352 15.6167 4.815C15.5779 4.83796 15.5249 4.86991 15.4598 4.91061C15.3297 4.9919 15.1501 5.10874 14.9374 5.25926C14.5146 5.55851 13.9477 6.0002 13.3759 6.5707C12.2659 7.67814 10.95 9.46139 10.95 11.7676C10.95 14.0492 12.2426 15.9274 13.326 17.1219C13.8873 17.7408 14.4445 18.2334 14.8607 18.5715C15.0698 18.7415 15.2462 18.8747 15.3735 18.9676C15.4372 19.014 15.4888 19.0506 15.5264 19.0767C15.5452 19.0898 15.5604 19.1003 15.5719 19.1082L15.5864 19.1179L15.5914 19.1213L15.5934 19.1227L15.5943 19.1232C15.5946 19.1235 15.595 19.1237 16.4 17.9177M16.4 17.9177L17.1837 19.1377L16.3848 19.6509L15.595 19.1237L16.4 17.9177Z" fill="#CCE0E5"/>
<path d="M16.4 6.03679L17.0865 4.75961L16.384 4.38199L15.689 4.77311L16.4 6.03679ZM16.4 6.03679C17.0865 4.75961 17.087 4.75985 17.0875 4.7601L17.0885 4.76064L17.0908 4.76188L17.0964 4.76497L17.1122 4.77361C17.1246 4.78045 17.1408 4.78947 17.1605 4.80065C17.1999 4.82301 17.2535 4.85405 17.3193 4.89361C17.4506 4.97263 17.6317 5.0863 17.8459 5.2334C18.2717 5.52582 18.8422 5.95961 19.4176 6.52647C20.5414 7.63352 21.85 9.41701 21.85 11.7676C21.85 14.0945 20.5638 15.9719 19.4685 17.1658C18.904 17.7809 18.3437 18.2658 17.9249 18.5973C17.7145 18.7639 17.5368 18.894 17.4084 18.9847C17.3441 19.0301 17.2919 19.0658 17.2538 19.0914C17.2348 19.1042 17.2193 19.1145 17.2075 19.1222L17.1927 19.1319L17.1874 19.1353L17.1854 19.1366L17.1845 19.1372C17.1841 19.1375 17.1837 19.1377 16.4 17.9177M16.4 6.03679C15.689 4.77311 15.6885 4.77335 15.6881 4.77359L15.6871 4.77413L15.685 4.77537L15.6795 4.77849L15.6641 4.78728C15.652 4.79426 15.6361 4.80352 15.6167 4.815C15.5779 4.83796 15.5249 4.86991 15.4598 4.91061C15.3297 4.9919 15.1501 5.10874 14.9374 5.25926C14.5146 5.55851 13.9477 6.0002 13.3759 6.5707C12.2659 7.67814 10.95 9.46139 10.95 11.7676C10.95 14.0492 12.2426 15.9274 13.326 17.1219C13.8873 17.7408 14.4445 18.2334 14.8607 18.5715C15.0698 18.7415 15.2462 18.8747 15.3735 18.9676C15.4372 19.014 15.4888 19.0506 15.5264 19.0767C15.5452 19.0898 15.5604 19.1003 15.5719 19.1082L15.5864 19.1179L15.5914 19.1213L15.5934 19.1227L15.5943 19.1232C15.5946 19.1235 15.595 19.1237 16.4 17.9177M16.4 17.9177L17.1837 19.1377L16.3848 19.6509L15.595 19.1237L16.4 17.9177Z" stroke="#C1C9F1" stroke-opacity="0.748217" stroke-width="2.9"/>
<path d="M16.4 6.03679L17.0865 4.75961L16.384 4.38199L15.689 4.77311L16.4 6.03679ZM16.4 6.03679C17.0865 4.75961 17.087 4.75985 17.0875 4.7601L17.0885 4.76064L17.0908 4.76188L17.0964 4.76497L17.1122 4.77361C17.1246 4.78045 17.1408 4.78947 17.1605 4.80065C17.1999 4.82301 17.2535 4.85405 17.3193 4.89361C17.4506 4.97263 17.6317 5.0863 17.8459 5.2334C18.2717 5.52582 18.8422 5.95961 19.4176 6.52647C20.5414 7.63352 21.85 9.41701 21.85 11.7676C21.85 14.0945 20.5638 15.9719 19.4685 17.1658C18.904 17.7809 18.3437 18.2658 17.9249 18.5973C17.7145 18.7639 17.5368 18.894 17.4084 18.9847C17.3441 19.0301 17.2919 19.0658 17.2538 19.0914C17.2348 19.1042 17.2193 19.1145 17.2075 19.1222L17.1927 19.1319L17.1874 19.1353L17.1854 19.1366L17.1845 19.1372C17.1841 19.1375 17.1837 19.1377 16.4 17.9177M16.4 6.03679C15.689 4.77311 15.6885 4.77335 15.6881 4.77359L15.6871 4.77413L15.685 4.77537L15.6795 4.77849L15.6641 4.78728C15.652 4.79426 15.6361 4.80352 15.6167 4.815C15.5779 4.83796 15.5249 4.86991 15.4598 4.91061C15.3297 4.9919 15.1501 5.10874 14.9374 5.25926C14.5146 5.55851 13.9477 6.0002 13.3759 6.5707C12.2659 7.67814 10.95 9.46139 10.95 11.7676C10.95 14.0492 12.2426 15.9274 13.326 17.1219C13.8873 17.7408 14.4445 18.2334 14.8607 18.5715C15.0698 18.7415 15.2462 18.8747 15.3735 18.9676C15.4372 19.014 15.4888 19.0506 15.5264 19.0767C15.5452 19.0898 15.5604 19.1003 15.5719 19.1082L15.5864 19.1179L15.5914 19.1213L15.5934 19.1227L15.5943 19.1232C15.5946 19.1235 15.595 19.1237 16.4 17.9177M16.4 17.9177L17.1837 19.1377L16.3848 19.6509L15.595 19.1237L16.4 17.9177Z" stroke="#C51918" stroke-width="2.9"/>
<mask id="mask1_270_67565" style="mask-type:luminance" maskUnits="userSpaceOnUse" x="12" y="6" width="9" height="12">
<path d="M17.3316 15.2052C17.0125 15.553 16.6913 15.8506 16.412 16.0879C16.128 15.8416 15.7999 15.5328 15.474 15.1736C14.5575 14.163 13.85 12.9662 13.85 11.7676C13.85 10.5938 14.5341 9.51164 15.4241 8.62367C15.77 8.27864 16.119 7.99148 16.4129 7.7718C16.7019 7.98279 17.0437 8.25872 17.3824 8.59239C18.2587 9.45558 18.95 10.5375 18.95 11.7676C18.95 13.0216 18.2362 14.2192 17.3316 15.2052ZM15.7094 7.31175C15.709 7.31151 15.7094 7.31177 15.7108 7.31253L15.7108 7.31249L15.7094 7.31175Z" fill="white"/>
<path d="M17.3316 15.2052C17.0125 15.553 16.6913 15.8506 16.412 16.0879C16.128 15.8416 15.7999 15.5328 15.474 15.1736C14.5575 14.163 13.85 12.9662 13.85 11.7676C13.85 10.5938 14.5341 9.51164 15.4241 8.62367C15.77 8.27864 16.119 7.99148 16.4129 7.7718C16.7019 7.98279 17.0437 8.25872 17.3824 8.59239C18.2587 9.45558 18.95 10.5375 18.95 11.7676C18.95 13.0216 18.2362 14.2192 17.3316 15.2052ZM15.7094 7.31175C15.709 7.31151 15.7094 7.31177 15.7108 7.31253L15.7108 7.31249L15.7094 7.31175Z" stroke="white" stroke-width="2.9"/>
</mask>
<g mask="url(#mask1_270_67565)">
<rect x="12.9333" y="14" width="7.46667" height="1.5" fill="#91CBCB"/>
<path fill-rule="evenodd" clip-rule="evenodd" d="M13.6018 15.1979C13.6018 15.1979 18.8959 15.1998 19.3824 15.0171C19.869 14.8345 18.469 18.5247 16.6801 18.5247C14.8913 18.5247 13.6018 15.1979 13.6018 15.1979Z" fill="#FDF9A1"/>
<path d="M18.5936 14.7551L17.6426 15.4869C16.1437 13.5391 15.515 11.524 15.7833 9.46745L16.9732 9.62272C16.7485 11.3452 17.2796 13.0475 18.5936 14.7551Z" fill="#A68861"/>
<path fill-rule="evenodd" clip-rule="evenodd" d="M16.3937 9.63674L15.4864 10.6999C15.4523 10.7398 15.3876 10.707 15.3997 10.656L15.7118 9.33041H14.2924C14.2383 9.33041 14.2228 9.25636 14.2724 9.23462L15.4852 8.70292L14.6243 7.56803C14.5939 7.52783 14.6353 7.4729 14.6823 7.49123L16.036 8.01892L16.345 6.77549C16.3576 6.72487 16.4296 6.72491 16.4421 6.77554L16.7495 8.01892L18.0914 7.49644C18.1394 7.47775 18.1809 7.53508 18.1482 7.57483L17.2185 8.70292L18.5013 9.23421C18.5518 9.25515 18.5368 9.33041 18.4821 9.33041H17.2185L17.4108 10.6866C17.4179 10.7361 17.3558 10.7641 17.3233 10.726L16.3937 9.63674Z" fill="#239E46"/>
<path fill-rule="evenodd" clip-rule="evenodd" d="M15.6 13H20.4V14.05H15.6V13Z" fill="#239E46"/>
<path fill-rule="evenodd" clip-rule="evenodd" d="M14.872 12.3926H14.8672C14.8533 12.444 14.8194 12.4868 14.7656 12.521C14.7117 12.5551 14.6421 12.5721 14.5568 12.5721C14.4885 12.5721 14.4258 12.5598 14.3688 12.5351C14.3117 12.5105 14.2629 12.4742 14.2224 12.4265C14.1818 12.3787 14.1501 12.3194 14.1272 12.2485C14.1042 12.1776 14.0928 12.096 14.0928 12.0036C14.0928 11.9122 14.104 11.8311 14.1264 11.7602C14.1488 11.6894 14.1808 11.63 14.2224 11.5823C14.264 11.5345 14.3141 11.498 14.3728 11.4728C14.4314 11.4476 14.4965 11.435 14.568 11.435C14.6682 11.435 14.752 11.457 14.8192 11.5011C14.8864 11.5452 14.9381 11.6035 14.9744 11.676L14.864 11.7421C14.8384 11.6833 14.8002 11.6371 14.7496 11.6035C14.6989 11.5699 14.6384 11.5531 14.568 11.5531C14.5189 11.5531 14.4741 11.5618 14.4336 11.5791C14.393 11.5964 14.3581 11.6208 14.3288 11.6523C14.2994 11.6838 14.2768 11.7216 14.2608 11.7657C14.2448 11.8098 14.2368 11.8592 14.2368 11.9138V12.0918C14.2368 12.1464 14.2448 12.196 14.2608 12.2406C14.2768 12.2852 14.2994 12.3233 14.3288 12.3548C14.3581 12.3863 14.3941 12.4107 14.4368 12.428C14.4794 12.4454 14.5274 12.454 14.5808 12.454C14.6192 12.454 14.6557 12.449 14.6904 12.4391C14.725 12.4291 14.7554 12.4141 14.7816 12.3942C14.8077 12.3742 14.8282 12.3493 14.8432 12.3194C14.8581 12.2894 14.8656 12.254 14.8656 12.213V12.1044H14.6192V11.9878H14.9968V12.5532H14.872V12.3926ZM15.7072 11.4539V12.1343C15.7072 12.2393 15.7269 12.3188 15.7664 12.3729C15.8058 12.427 15.8752 12.454 15.9744 12.454C16.0736 12.454 16.1429 12.427 16.1824 12.3729C16.2218 12.3188 16.2416 12.2393 16.2416 12.1343V11.4539H16.376V12.1028C16.376 12.1826 16.3688 12.2519 16.3544 12.3107C16.34 12.3695 16.3168 12.4183 16.2848 12.4572C16.2528 12.496 16.2109 12.5249 16.1592 12.5438C16.1074 12.5627 16.0442 12.5721 15.9696 12.5721C15.8949 12.5721 15.8322 12.5627 15.7816 12.5438C15.7309 12.5249 15.6901 12.496 15.6592 12.4572C15.6282 12.4183 15.6061 12.3695 15.5928 12.3107C15.5794 12.2519 15.5728 12.1826 15.5728 12.1028V11.4539H15.7072ZM17.664 12.5532L17.552 12.2288H17.1008L16.9888 12.5532H16.8528L17.2432 11.4539H17.4144L17.8048 12.5532H17.664ZM17.3296 11.5767H17.3216L17.1328 12.1122H17.5184L17.3296 11.5767ZM19.1808 11.6271H19.1728L19.0784 11.8114L18.8112 12.2902L18.544 11.8114L18.4496 11.6271H18.4416V12.5532H18.3104V11.4539H18.4896L18.8096 12.0461H18.8176L19.1392 11.4539H19.312V12.5532H19.1808V11.6271Z" fill="#C51918"/>
</g>
</g>
</g>
<defs>
<clipPath id="clip0_270_67565">
<rect width="32" height="24" fill="white"/>
</clipPath>
</defs>
</svg>

<svg width="32" height="24" fill="none" xmlns="http://www.w3.org/2000/svg">
  <mask id="a" maskUnits="userSpaceOnUse" x="0" y="0" width="32" height="24">
    <path fill="#fff" d="M0 0h32v24H0z"/>
  </mask>
  <g mask="url(#a)">
    <path fill-rule="evenodd" clip-rule="evenodd" d="M0 0h32v24H0V0z" fill="#C51918"/>
    <path fill-rule="evenodd" clip-rule="evenodd" d="M4 4h24v16H4V4z" fill="#4564F9"/>
    <path d="M5 5h22v14H5V5z" stroke="#CBDAFF" stroke-opacity=".1" stroke-width="2"/>
    <mask id="b" maskUnits="userSpaceOnUse" x="4" y="4" width="24" height="16">
      <path fill-rule="evenodd" clip-rule="evenodd" d="M4 4h24v16H4V4z" fill="#fff"/>
      <path d="M5 5h22v14H5V5z" stroke="#fff" stroke-width="2"/>
    </mask>
    <g mask="url(#b)">
      <path d="M16.5 5l.607-1.317-.621-.286-.616.297L16.5 5zm0 0a227.2 227.2 0 01.608-1.317h0l.003.002.006.003.019.009a5.631 5.631 0 01.265.131 15.34 15.34 0 012.785 1.858c1.48 1.25 3.264 3.307 3.264 6.067 0 2.731-1.755 4.906-3.21 6.265a17.243 17.243 0 01-3.013 2.237l-.018.01-.006.003-.002.001H17.2L16.5 19m0-14l-.63-1.306h-.002l-.002.002-.006.003-.018.009a14.971 14.971 0 00-.953.53c-.562.342-1.318.846-2.081 1.499-1.465 1.252-3.258 3.31-3.258 6.016 0 2.677 1.762 4.853 3.204 6.215a18.063 18.063 0 002.941 2.24l.058.035.017.01.006.003.002.002h.001L16.5 19m0 0l.7 1.27-.714.393-.706-.404L16.5 19z" stroke="#C1C9F1" stroke-opacity=".118" stroke-width="2.9"/>
      <path d="M16.4 6.037l.687-1.277-.703-.378-.695.391.711 1.264zm0 0l.688-1.277.003.002.005.003.016.009a4.562 4.562 0 01.207.12 11.7 11.7 0 012.098 1.633c1.124 1.107 2.433 2.89 2.433 5.24 0 2.328-1.286 4.205-2.382 5.399a13.435 13.435 0 01-2.06 1.819 8.178 8.178 0 01-.2.137l-.015.01-.006.003-.002.002-.785-1.22m0-11.88a206.334 206.334 0 00-.712-1.263l-.003.001-.005.003-.016.01a4.974 4.974 0 00-.204.123 12.27 12.27 0 00-2.084 1.66c-1.11 1.107-2.426 2.89-2.426 5.197 0 2.281 1.293 4.16 2.376 5.354a14.076 14.076 0 002.2 1.955l.046.031.014.01.005.003.002.002h.001l.806-1.205m0 0l.784 1.22-.8.513-.789-.527.805-1.206z" fill="#CCE0E5"/>
      <path d="M16.4 6.037l.687-1.277-.703-.378-.695.391.711 1.264zm0 0l.688-1.277h0l.003.002.005.003.016.009a4.562 4.562 0 01.207.12 11.7 11.7 0 012.098 1.633c1.124 1.107 2.433 2.89 2.433 5.24 0 2.328-1.286 4.205-2.382 5.399a13.435 13.435 0 01-2.06 1.819 8.178 8.178 0 01-.2.137l-.015.01-.006.003-.002.002h0l-.785-1.22m0-11.88a206.334 206.334 0 00-.712-1.263h0l-.003.001-.005.003-.016.01a4.974 4.974 0 00-.204.123 12.27 12.27 0 00-2.084 1.66c-1.11 1.107-2.426 2.89-2.426 5.197 0 2.281 1.293 4.16 2.376 5.354a14.076 14.076 0 002.2 1.955l.046.031.014.01.005.003.002.002h.001l.806-1.205m0 0l.784 1.22-.8.513-.789-.527.805-1.206z" stroke="#C1C9F1" stroke-opacity=".748" stroke-width="2.9"/>
      <path d="M16.4 6.037l.687-1.277-.703-.378-.695.391.711 1.264zm0 0l.688-1.277h0l.003.002.005.003.016.009a4.562 4.562 0 01.207.12 11.7 11.7 0 012.098 1.633c1.124 1.107 2.433 2.89 2.433 5.24 0 2.328-1.286 4.205-2.382 5.399a13.435 13.435 0 01-2.06 1.819 8.178 8.178 0 01-.2.137l-.015.01-.006.003-.002.002h0l-.785-1.22m0-11.88a206.334 206.334 0 00-.712-1.263h0l-.003.001-.005.003-.016.01a4.974 4.974 0 00-.204.123 12.27 12.27 0 00-2.084 1.66c-1.11 1.107-2.426 2.89-2.426 5.197 0 2.281 1.293 4.16 2.376 5.354a14.076 14.076 0 002.2 1.955l.046.031.014.01.005.003.002.002h.001l.806-1.205m0 0l.784 1.22-.8.513-.789-.527.805-1.206z" stroke="#C51918" stroke-width="2.9"/>
      <mask id="c" maskUnits="userSpaceOnUse" x="12" y="6" width="9" height="12">
        <path d="M17.332 15.205c-.32.348-.64.646-.92.883a11.05 11.05 0 01-.938-.914c-.917-1.011-1.624-2.208-1.624-3.406 0-1.174.684-2.256 1.574-3.144a9.27 9.27 0 01.989-.852c.289.21.63.487.97.82.876.864 1.567 1.945 1.567 3.176 0 1.254-.714 2.451-1.618 3.437zm-1.623-7.893h.002-.002z" fill="#fff"/>
        <path d="M17.332 15.205c-.32.348-.64.646-.92.883a11.05 11.05 0 01-.938-.914c-.917-1.011-1.624-2.208-1.624-3.406 0-1.174.684-2.256 1.574-3.144a9.27 9.27 0 01.989-.852c.289.21.63.487.97.82.876.864 1.567 1.945 1.567 3.176 0 1.254-.714 2.451-1.618 3.437zm-1.623-7.893h.002-.002z" stroke="#fff" stroke-width="2.9"/>
      </mask>
      <g mask="url(#c)">
        <path fill="#91CBCB" d="M12.933 14H20.4v1.5h-7.467z"/>
        <path fill-rule="evenodd" clip-rule="evenodd" d="M13.602 15.198s5.294.002 5.78-.18c.487-.184-.913 3.507-2.702 3.507s-3.078-3.327-3.078-3.327z" fill="#FDF9A1"/>
        <path d="M18.594 14.755l-.951.732c-1.5-1.948-2.128-3.963-1.86-6.02l1.19.156c-.224 1.722.307 3.425 1.62 5.132z" fill="#A68861"/>
        <path fill-rule="evenodd" clip-rule="evenodd" d="M16.394 9.637l-.908 1.063c-.034.04-.098.007-.086-.044l.312-1.326h-1.42c-.054 0-.07-.074-.02-.095l1.213-.532-.86-1.135c-.031-.04.01-.095.057-.077l1.354.528.309-1.244c.013-.05.085-.05.097 0l.308 1.244 1.341-.523c.048-.018.09.04.057.079l-.93 1.128 1.283.531c.05.021.036.096-.019.096h-1.264l.193 1.357c.007.05-.055.077-.088.039l-.93-1.09zM15.6 13h4.8v1.05h-4.8V13z" fill="#239E46"/>
        <path fill-rule="evenodd" clip-rule="evenodd" d="M14.872 12.393h-.005a.22.22 0 01-.101.128.385.385 0 01-.21.051.468.468 0 01-.187-.037.395.395 0 01-.147-.108.516.516 0 01-.095-.178.794.794 0 01-.034-.245c0-.092.011-.173.033-.244a.493.493 0 01.096-.178.412.412 0 01.15-.11.49.49 0 01.196-.037c.1 0 .184.022.251.066a.442.442 0 01.155.175l-.11.066a.311.311 0 00-.114-.139.321.321 0 00-.182-.05.339.339 0 00-.134.026.304.304 0 00-.173.187.432.432 0 00-.024.148v.178c0 .054.008.104.024.149a.298.298 0 00.176.187.397.397 0 00.254.011.276.276 0 00.09-.045.213.213 0 00.085-.181v-.109h-.247v-.116h.378v.565h-.125v-.16zm.835-.94v.681a.4.4 0 00.06.239c.039.054.108.081.207.081.1 0 .169-.027.208-.081a.403.403 0 00.06-.239v-.68h.134v.649a.85.85 0 01-.022.208.363.363 0 01-.07.146.286.286 0 01-.125.087.556.556 0 01-.19.028.541.541 0 01-.187-.028.276.276 0 01-.123-.087.358.358 0 01-.066-.146.946.946 0 01-.02-.208v-.65h.134zm1.957 1.1l-.112-.324h-.451l-.112.324h-.136l.39-1.1h.171l.39 1.1h-.14zm-.334-.976h-.008l-.19.535h.386l-.188-.535zm1.85.05h-.007l-.095.184-.267.48-.267-.48-.094-.184h-.008v.926h-.132v-1.1h.18l.32.593h.008l.321-.592h.173v1.1h-.131v-.927z" fill="#C51918"/>
      </g>
    </g>
  </g>
</svg>
